packages/components/icon/src/assets/icons/alert.svg

<svg width="24" height="24" viewBox="0 0 24 24" fill="none" xmlns="http://www.w3.org/2000/svg">
<path fill-rule="evenodd" clip-rule="evenodd" d="M19.916 18.8398L12.7158 4.40712C12.4446 3.86429 11.5557 3.86429 11.2845 4.40712L4.08428 18.8398C3.96107 19.0883 3.97307 19.3826 4.11948 19.6207C4.26508 19.8565 4.52189 20 4.7995 20H19.2C19.4776 20 19.7344 19.8557 19.8808 19.6199C20.0264 19.3826 20.0392 19.0891 19.916 18.8398ZM11.0588 9.94824H12.9412V14.7591H11.0588V9.94824ZM12 17.7154C11.4805 17.7154 11.0588 17.2945 11.0588 16.7742C11.0588 16.2547 11.4805 15.8331 12 15.8331C12.5195 15.8331 12.9412 16.2547 12.9412 16.7742C12.9412 17.2945 12.5195 17.7154 12 17.7154Z" fill="currentColor"/>
</svg>

<svg viewBox="0 0 24 24" fill="none" xmlns="http://www.w3.org/2000/svg"><path fill-rule="evenodd" clip-rule="evenodd" d="m19.916 18.84-7.2-14.433c-.271-.543-1.16-.543-1.431 0l-7.2 14.433a.805.805 0 0 0 .034.78.8.8 0 0 0 .68.38H19.2a.802.802 0 0 0 .716-1.16Zm-8.857-8.892h1.882v4.811H11.06V9.95ZM12 17.715a.941.941 0 1 1 0-1.882.941.941 0 0 1 0 1.882Z" fill="currentColor"/></svg>
